X:1
T:The Lord Is Our Trust
T:The Lord Is Our Trust
T:Leonard Daughterty
T:Will M. Maupin, 1921
T:Public Domain Courtesy of the Cyber Hymnal™
T:Public Domain Courtesy of the Cyber Hymnal™
C:Leonard Daughterty
Z:Public Domain
Z:Courtesy of the Cyber Hymnal™
%%score ( 1 2 ) ( 3 4 )
L:1/8
Q:1/4=100
M:4/4
K:G
V:1 treble 
V:2 treble 
V:3 bass 
V:4 bass 
V:1
 [B,D]2 | [DB]3 [Ec] [DB]>[CA] [B,G]>[CA] x | [DB]6 [=FA]2 | [EG]3 [^DF] [EG]>[DF] [EG]>[CE] x | %4
w: 1.~I|know not where the path may|lead, How|dark the way that I must|
w: 2.~I|may not have strength of my|own, To|do the task be- fore me|
w: 3.~But|this I know, what- e’er the|task, Or|foe that seeks my soul’s a-|
w: 4.~I|may not know what waits the|day, Nor|part the veil that hangs be-|
w: 5.~But|this I know, if with my|best I|played the part I had to|
 [B,D]6 [B,D]2 | [DB]3 [Ec] [DB]>[CA] [B,G]>[CA] x | [DB]6 [B,G]2 | %7
w: tread; My|feet may walk on fra- grant|mead, Or|
w: laid; Heart|shrink to make the fight a-|lone A-|
w: larm, I|need not fear; I need but|ask The|
w: tween; I|may not glimpse one gold- en|ray Up-|
w: play, ’Tis|safe to leave to Him the|rest, For|
 [CA]3 [B,^G] [CA]>[Ec] [DB]>[CA] x | [B,G]4- [B,G]3/2 ||"^Refrain" B<B c/ | d4- d>d e>d | %11
w: midst deep bogs that ’round them|spread. *|||
w: gainst the foe I see ar-|rayed. *|||
w: help- ful strength of His strong|arm. *|But this I|know, * what- e’er be-|
w: on the fur- ther dis- tant|scene. *|||
w: His own time, in His own|way. *|||
 c4- [Fc]>A A>B | c4- [Ac]>[ce] [Bd]>[Ac] | B4- [GB]3/2 x5/2 | d4- [Gd]>[GB] [Gc]>[Ge] | %15
w: ||||
w: ||||
w: tide, I need not fear|* nor walk a- lone;|* I|still may have One at|
w: ||||
w: ||||
 d4- [Gd]>[B,D] [B,G]>[CA] | [DB]4- [DB]>[EB] [DB]>[CA] | G4- [B,G]2 |] %18
w: |||
w: |||
w: * my side, And feel|* * my hand with-|in His|
w: |||
w: |||
V:2
 x2 | x9 | x8 | x9 | x8 | x9 | x8 | x9 | x11/2 || x5/2 | (G2 G2 G2) G2 | F2 F2 x4 | A2 A2 x4 | %13
 (G2 G2 B<)B c/ x3/2 | G2 G2 x4 | G2 FF x4 | x8 | B,>B,C>C x2 |] %18
V:3
 B,2 | D3 z ED>CB,>C | D6 [B,,=F]2 | E3 z ^DE>DE>C | B,6 B,2 | D3 z ED>CB,>C | D6 [G,,B,]2 | %7
w: ~|~ ~ ~ ~ ~ ~|~ ~|~ ~ ~ ~ ~ ~|~ ~|~ ~ ~ ~ ~ ~|~ ~|
 C3 z B,C>ED>C | [G,,G,B,]4- [G,,G,B,]3/2 || z/ z2 | [G,B,]2 [G,B,]2 [G,B,]2 (C>B,) | %11
w: ~ ~ ~ ~ ~ ~|~ *||~ ~ ~ ~ *|
 [D,A,]2 [D,A,]2 [D,A,]3/2 z/ z2 | [D,D]2 [D,D]2 [D,D]2 D2 | [G,D]2 [G,D]2 [G,D]3/2 z/ z2 | %14
w: This I know,|what- e’er be- tide,|need not fear|
 [G,B,]2 [G,B,]2 [G,B,]>[G,D] [G,E]>[G,C] | [G,B,]2 [D,A,][D,A,] [G,B,]3/2 z/ z2 | %16
w: nor walk a- lone, still may|have One at my|
 z3/2 [G,,G,]/ [B,,G,]>[D,G,] G,>[C,G,] [D,G,]>[D,F,] | G,>D, E,>_E, [G,,D,]2 |] %18
w: side (at my side) and feel my|hand ~ ~ ~ ~|
V:4
 x2 | G,,2 G,2 G,,2 G,2 x | (G,,2 D,2 G,2) x2 | [C,G,]2 ([C,G,]2 [C,G,]2) [C,G,]2 x | %4
 (G,,2 D,2 G,2) x2 | G,,2 (G,2 G,,2) G,2 x | (G,,2 D,2 G,2) x2 | D,2 (D,,2 [D,,D,]2) [D,,D,]2 x | %8
 x11/2 || x5/2 | x6 G,2 | x8 | x6 (E,>F,) | x8 | x8 | x8 | x4 G,3/2 x5/2 | G,,4- x2 |] %18

